!!!!SEGMENT: pl-kk--kk-i-6--046_anonim--alleluia-ave-maria.krn
!!!cenid: 16xx:1039
!!!COM: Anonim
!!!COM-rismid: pe30004985
!!!CDT:
!!!CNT:
!!!OTL: Alleluia Ave Maria
!!!PDT:
!!!AGN: Sacred
!!!SMS-siglum: PL-Kk
!!!SMS-shelfmark: Kk.I.6
!!!SMS-shelfwork: 046 W
!!!SMS-variant:
!!!SMS-altvar:
!!!NIFC-rismid: 1001136533
!!!URL-scan: http://repozytorium.nifc.pl/skany/pl-kk-nut--i-6
!!!ONB-nifc: UWAGA: C (skan 0068, s. 132-133), T (skan 0179-0180, s. 163-164), B (skan 0288, s. 158-159) Następny utwór: Missa
!!!key:
**kern	**text	**kern	**text	**kern	**text
*part3	*part3	*part2	*part2	*part1	*part1
*staff3	*staff3	*staff2	*staff2	*staff1	*staff1
*Iempty	*	*Itenor	*	*Ivox	*
*I"[Baſsus.]	*	*I"[Tenor.]	*	*I"[Cantus.]	*
*I'[B]	*	*I'[T]	*	*I'[S]	*
*clefF4	*	*clefC4	*	*clefC4	*
*k[]	*	*k[]	*	*k[]	*
*d:	*	*d:	*	*d:	*
*M3/2	*	*M3/2	*	*M3/2	*
*MM200	*	*MM200	*	*MM200	*
=1-	=1-	=1-	=1-	=1-	=1-
!!LO:TX:t=P:problem:4\middle:global
!LO:TX:a:t=Tempore Paschali	!	!LO:TX:a:t=Tempore Paschali	!	!LO:TX:a:t=Tempore Paschali	!
!LO:TX:t=P:problem=przed kluczem inicjał A	!	!LO:TX:t=P:problem=przed kluczem inicjał A	!	!LO:TX:t=P:problem=przed kluczem inicjał A	!
1.r	.	2r	.	1.r	.
.	.	2r	.	.	.
.	.	2D/	Al-	.	.
=2-	=2-	=2-	=2-	=2-	=2-
2r	.	1A	-le-	2r	.
2r	.	.	.	2r	.
!LO:TX:t=P:problem=kreska pseudotaktowa	!	!	!	!	!
*	*	*2\right	*	*	*
2D/	Al-	2d\	-lu-	2D/	Al-
=3-	=3-	=3-	=3-	=3-	=3-
1D	-le-	1A	-ja	1A	-le-
*	*	*	*	*2\right	*
2BB/	-lu-	2B\	al-	2d\	-lu-
=4-	=4-	=4-	=4-	=4-	=4-
4AA/	-ja	2c\	-le-	1c	-ja
4BB/	.	.	.	.	.
4C/	.	2A/	.	.	.
4D/	.	.	.	.	.
*2\right	*	*	*	*	*
!LO:TX:t=P:problem=kreska pseudotaktowa	!	!	!	!	!
2E\	.	2G#X/	.	2B\	al-
=5-	=5-	=5-	=5-	=5-	=5-
2C/	al-	1A	.	2c\	-le-
2D/	-le-	.	.	1B	-lu-
2E\	-lu-	2G#X/	-lu-	.	.
=6-	=6-	=6-	=6-	=6-	=6-
!LO:TX:t=P:problem=kreska pseudotaktowa	!	!	!	!	!
1.AA	-ja	4A/	-ja	1.A	-ja
.	.	4G#X/	.	.	.
.	.	4A/	.	.	.
.	.	4B\	.	.	.
.	.	4c\	.	.	.
.	.	4d\	.	.	.
=7-	=7-	=7-	=7-	=7-	=7-
!LO:LB:g=original	!	!	!	!	!
2A\	al-	2e\	al-	2c\	al-
2E\	-le-	2e\	-le-	2B\	-le-
2F\	-lu-	2c\	-lu-	2A/	-lu-
=8-	=8-	=8-	=8-	=8-	=8-
*	*	*	*	*custos:A	*
!	!	!LO:LB:g=original	!	!	!
4C/	-ja	1.c	-ja	1.G	-ja
4BB/	.	.	.	.	.
4C/	.	.	.	.	.
4D/	.	.	.	.	.
4E\	.	.	.	.	.
4C/	.	.	.	.	.
=9-	=9-	=9-	=9-	=9-	=9-
!	!	!	!	!LO:LB:g=original	!
2F\	al-	2c\	al-	2A/	al-
2C/	-le-	2c\	-le-	2G/	-le-
2D/	-lu-	2A/	-lu-	2F/	-lu-
=10-	=10-	=10-	=10-	=10-	=10-
4AA/	-ja	1.A	-ja	1.E	-ja
4GG/	.	.	.	.	.
4AA/	.	.	.	.	.
4BB/	.	.	.	.	.
4C#X/	.	.	.	.	.
4AA/	.	.	.	.	.
=11-	=11-	=11-	=11-	=11-	=11-
2D/	al-	2A/	al-	2F/	al-
2GG/	-le-	2B-X\	-le-	2G/	-le-
!LO:TX:t=P:problem=kreska pseudotaktowa	!	!	!	!	!
2AA/	-lu-	2A/	-lu-	2E/	-lu-
=12-	=12-	=12-	=12-	=12-	=12-
1.D	-ja	1.A	-ja	1.D;	-ja.
=13||	=13||	=13||	=13||	=13||	=13||
*M2/1	*	*M2/1	*	*M2/1	*
*met(C|)	*	*met(C|)	*	*met(C|)	*
!LO:PB:g=original	!	!	!	!	!
1AA	A-	2.e\	A-	2rc	.
.	.	.	.	2.e\	A-
.	.	4d\	.	.	.
*lig	*	*	*	*	*
1C	-ve	4c\	.	.	.
.	.	4B\	.	4d\	.
.	.	1A\	.	4c\	.
!	!	!	!	!LO:TX:t=P:problem=kreska pseudotaktowa	!
.	.	.	.	4B\	.
=14-	=14-	=14-	=14-	=14-	=14-
!LO:TX:t=P:problem=kreska pseudotaktowa	!	!	!	!	!
1D	.	.	.	1A	.
.	.	2.d\	.	.	.
*Xlig	*	*	*	*	*
1F	Ma-	.	.	2A/	-ve
.	.	4A\	.	.	.
!	!	!	!	!LO:TX:t=P:problem=kreska pseudotaktowa	!
.	.	4d\	.	2A/	Ma-
.	.	4c\	.	.	.
=15-	=15-	=15-	=15-	=15-	=15-
1G	-ri-	1B	.	4B\	-ri-
.	.	.	.	4A\	.
.	.	.	.	4B\	.
.	.	.	.	4c\	.
*	*	*	*	*custos:d	*
!LO:TX:t=P:problem=kreska pseudotaktowa	!	!	!	!	!
1D	-a	2A/	-ve	1d	.
!	!	!LO:LB:g=original	!	!	!
.	.	2B\	Ma-	.	.
=16-	=16-	=16-	=16-	=16-	=16-
*lig	*	*	*	*	*
!	!	!	!	!LO:LB:g=original	!
1C	gra-	1c	-ri-	2G/	-a
.	.	.	.	2.c\	gra-
1F	.	2c\	-a	.	.
.	.	.	.	4B\	-ti-
!	!	!	!	!LO:TX:t=P:problem=kreska pseudotaktowa	!
.	.	2.c\	gra-	2A/	-â
*Xlig	*	*	*	*	*
=17-	=17-	=17-	=17-	=17-	=17-
*	*	*	*	*lig	*
1E	-ti-	.	.	1G	ple-
.	.	4c\	-ti-	.	.
.	.	2c\	-â	.	.
*lig	*	*	*	*	*
1D	-â	2A\	ple-	1F	.
.	.	2d\	.	.	.
*	*	*	*	*Xlig	*
=18-	=18-	=18-	=18-	=18-	=18-
!LO:TX:t=P:problem=kreska pseudotaktowa	!	!	!	!	!
1E	.	2B\	.	0E	.
.	.	2e\	.	.	.
*Xlig	*	*	*	*	*
1C#X	ple-	0A	-na	.	.
=19-	=19-	=19-	=19-	=19-	=19-
!LO:TX:t=P:problem=kreska pseudotaktowa	!	!	!	!	!
1D	-na	.	.	2A/	-na
.	.	.	.	2.A/	do-
*lig	*	*	*	*	*
*	*	*custos:c	*	*	*
1F	Do-	1r	.	.	.
.	.	.	.	4G/	.
.	.	.	.	4A/	.
!	!	!	!	!LO:TX:t=P:problem=kreska pseudotaktowa	!
.	.	.	.	4B\	.
=20-	=20-	=20-	=20-	=20-	=20-
!	!	!LO:PB:g=original	!	!	!
1A	.	4c\	Do-	2.c\	.
.	.	4B\	.	.	.
.	.	4c\	.	.	.
.	.	4d\	.	4c\	-mi-
*Xlig	*	*	*	*	*
*lig	*	*	*	*	*
!	!	!	!	!LO:TX:t=P:problem=kreska pseudotaktowa	!
1G	.	2.e\	.	1B	-nus
.	.	4d\	-mi-	.	.
=21-	=21-	=21-	=21-	=21-	=21-
1A	.	1c	-nus	2.c\	Do-
.	.	.	.	4B\	-mi-
*Xlig	*	*	*ij	*	*
1F	-mi-	2.d\	Do-	1A	-n(us)
.	.	4c\	-mi-	.	.
=22-	=22-	=22-	=22-	=22-	=22-
*	*	*	*	*	*ij
!LO:TX:t=Dic nobis Ma\nria	!	!	!	!	!
1G	-nus	1B	-nus	2.B\	Do-
*	*	*	*Xij	*	*
!	!	!	!	!LO:TX:t=P:problem=kreska pseudotaktowa	!
.	.	.	.	4A/	-mi-
*lig	*	*	*	*	*
*	*	*	*	*custos:c	*
!LO:LB:g=original	!	!	!	!	!
1E	Te-	2.c\	te-	2G/	n(us)
*	*	*	*	*	*Xij
!	!	!	!	!LO:LB:g=original	!
.	.	.	.	2.c\	Te-
.	.	4B\	.	.	.
=23-	=23-	=23-	=23-	=23-	=23-
1F	.	0A	.	.	.
.	.	.	.	4B-X\	.
.	.	.	.	4A/	.
!	!	!	!	!LO:TX:t=P:problem=kreska pseudotaktowa	!
.	.	.	.	4G/	.
*Xlig	*	*	*	*	*
!LO:TX:t=P:problem=kreska pseudotaktowa	!	!	!	!	!
1D,<	-cum,	.	.	0F	-cum
=24-	=24-	=24-	=24-	=24-	=24-
1F	be-	1A	-cum	.	.
1G	-ne-	1r	.	0rd	.
=25-	=25-	=25-	=25-	=25-	=25-
1F	-dic-	2rc	.	.	.
.	.	1f	be-	.	.
1G,<	-ta	.	.	1re	.
.	.	2e\	-ne-	.	.
=26-	=26-	=26-	=26-	=26-	=26-
*lig	*	*	*	*	*
1A	Tu	1f	-dic-	2re	.
.	.	.	.	1f	Be-
!LO:TX:t=P:problem=kreska pseudotaktowa	!	!	!	!	!
1G	.	(2d\	-ta	.	.
!	!	!	!	!LO:TX:t=P:problem=kreska pseudotaktowa	!
.	.	2g\)	.	2e\	-ne-
*Xlig	*	*	*	*	*
=27-	=27-	=27-	=27-	=27-	=27-
1F	in	4c\	Tu	1f	-di-
.	.	4c\	in	.	.
!	!	!LO:TX:t=P:problem=brak sylab mu- li-	!	!	!
!	!	!LO:LB:g=original	!	!	!
.	.	2.d\	e-	.	.
1G	mu-	.	.	1d	-cta
.	.	4c\	.	.	.
.	.	2.B-X\	.	.	.
=28-	=28-	=28-	=28-	=28-	=28-
1E	-li-	.	.	2e\	Tu
.	.	4A/	.	.	.
!	!	!	!	!LO:TX:t=P:problem=kreska pseudotaktowa	!
.	.	2G/	.	2c\	in
1F	-e-	4c\	.	2A/	mu-
.	.	4B-X\	.	.	.
!	!	!	!	!LO:TX:t=P:problem=kreska pseudotaktowa	!
.	.	4A/	.	2c\	-li-
.	.	4G/	.	.	.
=29-	=29-	=29-	=29-	=29-	=29-
1D	.	4F/	.	2d\	-e-
.	.	4D/	.	.	.
.	.	1d	.	1A	.
1AA	-ri-	.	.	.	.
!	!	!	!	!LO:TX:t=P:problem=kreska pseudotaktowa	!
.	.	2c#X\	-ri-	2A/	-ri-
=30-	=30-	=30-	=30-	=30-	=30-
!LO:TX:t=P:problem=kreska pseudotaktowa	!	!	!	!	!
1D	-bus	1d	-bus	1A	-bus
!LO:TX:t=P:problem=kreska pseudotaktowa	!	!	!	!	!
*	*	*	*	*lig	*
!LO:LB:g=original	!	!	!	!LO:LB:g=original	!
1rA	.	2.e\	et	1A	et
.	.	4d\	.	.	.
=31-	=31-	=31-	=31-	=31-	=31-
2.A\	et	2.cny\	be-	1c	.
4G\	.	4Bn\	.	.	.
*	*	*	*	*Xlig	*
*	*	*	*	*lig	*
4F\	be-	2A/	-ne-	1d	be-
4G\	.	.	.	.	.
4F\	.	2A/	-di-	.	.
4E\	.	.	.	.	.
=32-	=32-	=32-	=32-	=32-	=32-
2D/	.	1d	.	1A	.
!LO:TX:t=P:problem=kreska pseudotaktowa	!	!	!	!	!
2D/	-ne-	.	.	.	.
*	*	*lig	*	*Xlig	*
*	*	*	*	*lig	*
!	!	!LO:LB:g=original	!	!	!
4AA/	-di-	1c	.	1A	-ne-
4BB/	.	.	.	.	.
4Cny/	.	.	.	.	.
4D/	.	.	.	.	.
=33-	=33-	=33-	=33-	=33-	=33-
!	!	!LO:TX:t=P:problem=♮ przed ligaturą	!	!LO:TX:a:t=P:problem=# above	!
1E	.	1Bn	.	1G#X	.
*	*	*Xlig	*	*Xlig	*
!LO:TX:t=P:problem=kreska pseudotaktowa	!	!	!	!	!
1AA	-ctus	2A,</	-ctus	1A	-dic-
.	.	2A/	fruc-	.	.
=34-	=34-	=34-	=34-	=34-	=34-
2r	.	2c\	-tus	1A	-tus
1D	fruc-	2.F/	ven-	.	.
.	.	.	.	1A	fruc-
.	.	4G/	.	.	.
!LO:TX:t=P:problem=kreska pseudotaktowa	!	!	!	!	!
2F\	-t(us)	4A/	.	.	.
.	.	4B-X\	.	.	.
=35-	=35-	=35-	=35-	=35-	=35-
4C/	ven-	2c\	.	1c	-tus
4D/	.	.	.	.	.
4E\	.	2c\	-tris	.	.
4F\	.	.	.	.	.
2G\	.	1B-X	Tu-	1Gny	ven-
!LO:TX:t=P:problem=kreska pseudotaktowa	!	!	!	!	!
2G\	-tris	.	.	.	.
=36-	=36-	=36-	=36-	=36-	=36-
*lig	*	*	*	*	*
1D	Tu-	1A	-i	1F	-tris
*	*	*	*	*lig	*
1AA	.	2r	.	1E	Tu-
.	.	2A/	al-	.	.
*Xlig	*	*	*	*	*
=37-	=37-	=37-	=37-	=37-	=37-
!LO:TX:t=P:problem=kreska pseudotaktowa	!	!	!	!	!
!LO:LB:g=original	!	!	!	!	!
1D	-i	2A/	-le-	1F	.
.	.	2A/	-lu-	.	.
*	*	*	*	*Xlig	*
1rD	.	4d\	-ja	1D	-i.
.	.	4e\	.	.	.
.	.	4f\	.	.	.
.	.	4d\	.	.	.
=38-	=38-	=38-	=38-	=38-	=38-
1AA	al-	2e\	.	1C	al-
!	!	!LO:LB:g=original	!	!	!
.	.	2.e\	.	.	.
*	*	*	*	*lig	*
2AA/	-le-	.	.	1E	-le-
.	.	4f\	.	.	.
!LO:TX:t=P:problem=kreska pseudotaktowa	!	!	!	!	!
2AA/	-lu-	4g\	.	.	.
.	.	4e\	.	.	.
=39-	=39-	=39-	=39-	=39-	=39-
*	*	*lig	*	*	*
4D\	-ja	1f	.	1D	.
4E\	.	.	.	.	.
4F\	.	.	.	.	.
!LO:TX:t=P:problem=kreska pseudotaktowa	!	!	!	!	!
4D\	.	.	.	.	.
*	*	*	*	*Xlig	*
4E\	.	1e	.	1G	-lu-
4F\	.	.	.	.	.
4G\	.	.	.	.	.
4E\	.	.	.	.	.
*	*	*Xlig	*	*	*
=40-	=40-	=40-	=40-	=40-	=40-
!	!	!	!	!LO:TX:t=Scim(us) Chr(ist)um Surrexiſse.	!
!	!	!	!	!LO:LB:g=original	!
4F\	al-	2r	.	1A	-ia
4FF/	.	.	.	.	.
1F	-le-	2A/	al-	.	.
.	.	2B-X\	-le-	1G	al-
!LO:TX:t=P:problem=kreska pseudotaktowa	!	!	!	!	!
2E\	-lu-	2c\	-lu-	.	.
=41-	=41-	=41-	=41-	=41-	=41-
*	*	*	*	*lig	*
2F\	-ja	2F/	-ja	1A	-le-
1F	al-	2c\	al-	.	.
.	.	2d\	-le-	1G	.
!LO:TX:t=P:problem=kreska pseudotaktowa	!	!	!	!	!
2E\	.	2e\	-lu-	.	.
*	*	*	*	*Xlig	*
=42-	=42-	=42-	=42-	=42-	=42-
*	*	*	*	*lig	*
1D	-le-	4f\	-ja	1F	-lu-
.	.	4F/	.	.	.
.	.	1d	.	.	.
1AA	-lu-	.	.	1E	.
.	.	2c#X\	.	.	.
*	*	*	*	*Xlig	*
=43-	=43-	=43-	=43-	=43-	=43-
!	!	!	!	!LO:TX:a:t=5.	!
2D/	-ja	2d,<\	.	1%5D;	-ja
*	*ij	*	*	*	*
1GG	al-	1B-X	al-	.	.
2D/	-le-	2A/	-le-	.	.
=44-	=44-	=44-	=44-	=44-	=44-
1GG	-lu-	1G	-lu-	.	.
0D;	-ja	0F#X;	-ja	.	.
*	*Xij	*	*	*	*
=45||	=45||	=45||	=45||	=45||	=45||
*M2/1	*	*M2/1	*	*M2/1	*
*met(C|)	*	*met(C|)	*	*met(C|)	*
!LO:LB:g=original	!	!LO:LB:g=original	!	!LO:PB:g=original	!
2D/	Vir-	2A/	Vir-	1D	Vir-
!LO:TX:t=P:problem=kreska pseudotaktowa	!	!	!	!	!
2D/	-ga	2A/	-ga	.	.
4AA/	Jeſ-	1c	Jeſ-	1A	-ga
4BB/	.	.	.	.	.
4C/	.	.	.	.	.
4D/	.	.	.	.	.
=46-	=46-	=46-	=46-	=46-	=46-
2E\	.	2Bn\	-se	1E	Jeſ-
!LO:TX:t=P:problem=kreska pseudotaktowa	!	!	!	!	!
2E\	-se	2.G/	flo-	.	.
2.BB/	flo-	.	.	1G	-se
.	.	4A/	.	.	.
.	.	2B\	.	.	.
4C/	.	.	.	.	.
=47-	=47-	=47-	=47-	=47-	=47-
*lig	*	*	*	*lig	*
1D	.	2.A/	.	1F	flo-
.	.	4A/	-ru-	.	.
*col	*	*	*	*col	*
2.AA/	.	1A	-it	2.E/	.
*Xlig	*	*	*	*Xlig	*
4AA/	-ru-	.	.	4E/	-ru-
*Xcol	*	*	*	*Xcol	*
=48-	=48-	=48-	=48-	=48-	=48-
!LO:TX:t=P:problem=kreska pseudotaktowa	!	!	!	!	!
1D	-it	2r	.	1D	-it.
.	.	2.A/	Vir-	.	.
2r	.	.	.	1A	Vir-
.	.	4B\	-go	.	.
1A\	Vir-	2c\	De-	.	.
=49-	=49-	=49-	=49-	=49-	=49-
.	.	2B\	-um	1B	-go
2G#X\	-go	2B\	et	.	.
4A\	De-	2.A/	ho-	2c\	De-
4AA/	.	.	.	.	.
4C,</	-um,	.	.	4c\	-um
!LO:TX:t=P:problem=kreska pseudotaktowa	!	!	!	!LO:TX:t=P:problem=kreska pseudotaktowa	!
4D/	et	4A/	-mi-	4c\	et
=50-	=50-	=50-	=50-	=50-	=50-
2E\	ho-	2A/	-nem	2.B\	ho-
4E\	-mi-	2G#X/	ge-	.	.
!	!	!	!	!LO:TX:t=P:problem=kreska pseudotaktowa	!
4E\	-nem	.	.	4B\	-mi-
*lig	*	*	*	*	*
!	!	!LO:LB:g=original	!	!	!
1F	ge-	2A/	.	2A/	-nem
.	.	2.d\	.	1A\	ge-
=51-	=51-	=51-	=51-	=51-	=51-
*col	*	*	*	*	*
2.E\	.	.	.	.	.
.	.	4c\	.	.	.
!	!	!	!	!LO:TX:t=P:problem=kreska pseudotaktowa	!
.	.	4B\	.	2G#X/	-nu-
*Xlig	*	*	*	*	*
4E\	-nu-	4B\	-nu-	.	.
*Xcol	*	*	*	*	*
1AA	-it	1c	-it	1A	-it
=52-	=52-	=52-	=52-	=52-	=52-
!LO:LB:g=original	!	!	!	!LO:LB:g=original	!
1rA	.	2r	.	1d	pa-
.	.	1d	pa-	.	.
1Gny	pa-	.	.	1B	-cem
.	.	2B\	-cem	.	.
=53-	=53-	=53-	=53-	=53-	=53-
1E	-cem	4e\	De-	1c	De-
.	.	4d\	.	.	.
.	.	2.c\	.	.	.
1F	De-	.	.	1A	-us
.	.	4B\	.	.	.
.	.	4A\	.	.	.
.	.	4B\	.	.	.
=54-	=54-	=54-	=54-	=54-	=54-
1C	-us	4c\	.	1Gny	red-
.	.	4Gny/	-us	.	.
.	.	1c	red-	.	.
2.D/	red-	.	.	1F	-di-
.	.	2B\	.	.	.
4D/	-di-	.	.	.	.
=55-	=55-	=55-	=55-	=55-	=55-
1AA	-dit	2.A/	.	1E,<	-dit,
.	.	4A/	-di-	.	.
1r	.	2A/	-dit	1D	in
.	.	2r	.	.	.
=56-	=56-	=56-	=56-	=56-	=56-
!	!	!LO:LB:g=original	!	!	!
2r	.	1A	in	1A	te
1AA	in	.	.	.	.
.	.	2e\	te	1E	re-
2E\	te	2.B\	re-	.	.
=57-	=57-	=57-	=57-	=57-	=57-
2.BB/	re-	.	.	1G	-con-
.	.	4c\	-con-	.	.
.	.	2.d\	-ci-	.	.
4C/	-con-	.	.	.	.
1D	-ci-	.	.	1F	-ci-
.	.	4A/	.	.	.
.	.	1d\	.	.	.
=58-	=58-	=58-	=58-	=58-	=58-
1AA	-li-	.	.	1E	-li-
.	.	2c#X\	-li-	.	.
1D	-ans	2d\	-ans	1D	-ans
.	.	1A\	i-	.	.
=59-	=59-	=59-	=59-	=59-	=59-
!	!	!	!	!LO:LB:g=original	!
1AA	i-	.	.	1C	i-
.	.	2A/	-ma	.	.
*	*	*lig	*	*	*
2D/	-ma	1A	ſum-	1D	-ma
1D\	ſum-	.	.	.	.
=60-	=60-	=60-	=60-	=60-	=60-
.	.	1G	.	1E	ſum-
2C#X/	.	.	.	.	.
*	*	*Xlig	*	*	*
!LO:LB:g=original	!	!	!	!	!
2D/	-mis	2F/	-mis	1D	-mis
2.GG/	al-	2.B-X\	al-	.	.
=61-	=61-	=61-	=61-	=61-	=61-
.	.	.	.	1G	al-
4AA/	.	4A/	.	.	.
2BB-X/	.	1G	.	.	.
2.Cny/	-le-	.	.	1E	-le-
.	.	2.cny\	.	.	.
4BB-y/	.	.	.	.	.
=62-	=62-	=62-	=62-	=62-	=62-
2.AA/	-lu-	.	.	1F	-lu-
.	.	4B-X\	.	.	.
!	!	!LO:LB:g=original	!	!	!
.	.	2.A/	.	.	.
4GG/	.	.	.	.	.
2FF/	-ja	.	.	1A	-ja
.	.	4G/	.	.	.
*lig	*	*	*	*	*
1F\	al-	2F/	.	.	.
=63-	=63-	=63-	=63-	=63-	=63-
.	.	2B-X\	.	1G	al-
1E	.	2c\	.	.	.
.	.	1.A	-le-	1F	-le-
*Xlig	*	*	*	*	*
2D/	-le-	.	.	.	.
=64-	=64-	=64-	=64-	=64-	=64-
1AA	-lu-	.	.	1E	-lu-
.	.	2A/	-lu-	.	.
2D/	-ja	2A/	-ja	1%5D	-ja.
1GG/	al-	1B-X\	al-	.	.
=65-	=65-	=65-	=65-	=65-	=65-
.	.	.	.	.	.
2D/	-le-	2A/	-le-	.	.
1GG	-lu-	1B-X	-lu-	.	.
=66-	=66-	=66-	=66-	=66-	=66-
0D;	-ja.	0A;;	-ja.	.	.
!LO:PB:g=original	!	!LO:PB:g=original	!	!LO:LB:g=original	!
=-	=-	=-	=-	=-	=-
*-	*-	*-	*-	*-	*-
!!!system-decoration: [(s1,s2,s3)]
!!!AIN: 1 empty 1 tenor 1 vox
!!!ENC: Marta Chmielewska
!!!END: 2021-03-24
!!!RDF**kern: < = below
!!!RDF**kern: > = above
!!!ENC: Kamil Watkowski
!!!END: 2021-03-10
